images/icons/cube.svg

<svg height="32pt" viewBox="0 0 32 32" width="32pt" xmlns="http://www.w3.org/2000/svg"><g fill="#fff"><path d="m27.542969 10.195312c-.253907-.152343-.566407-.167968-.832031-.035156l-10.238282 5.121094c-.289062.144531-.472656.4375-.472656.761719v11.945312c0 .296875.152344.570313.40625.726563.136719.085937.292969.128906.445312.128906.132813 0 .261719-.03125.382813-.089844l10.242187-5.121094c.289063-.144531.46875-.441406.46875-.761718v-11.949219c0-.296875-.152343-.570313-.402343-.726563zm-1.304688 12.148438-8.53125 4.265625v-10.039063l8.53125-4.265624zm0 0"/><path d="m27.09375 8.335938c-.011719-.335938-.21875-.636719-.53125-.761719l-10.625-4.351563c-.210938-.089844-.453125-.085937-.667969.007813l-9.855469 4.351562c-.296874.132813-.496093.421875-.507812.75s.164062.632813.457031.785157l9.855469 5.207031c.125.0625.261719.097656.398438.097656.128906 0 .253906-.03125.375-.085937l10.625-5.207032c.300781-.148437.488281-.457031.476562-.792968zm-11.464844 4.273437-7.910156-4.179687 7.910156-3.492188 8.53125 3.496094zm0 0"/><path d="m14.703125 15.292969-9.386719-5.121094c-.265625-.140625-.585937-.136719-.84375.015625-.261718.15625-.417968.433594-.417968.734375v11.949219c0 .3125.167968.597656.441406.746094l9.386718 5.121093c.128907.070313.269532.105469.410157.105469.152343 0 .300781-.042969.4375-.121094.257812-.152344.417969-.433594.417969-.734375v-11.945312c0-.3125-.171876-.601563-.445313-.75zm-8.203125 7.472656 6.941406-5.046875v2.3125l-5.125 3.726562zm-.738281-3.882813 5.121093-3.726562 1.816407.988281-6.9375 5.050781zm3.464843-4.632812-3.464843 2.523438v-4.414063zm.746094 10.410156 3.46875-2.519531v4.410156zm0 0"/></g></svg>

<?xml version="1.0" encoding="UTF-8"?>
<svg xmlns="http://www.w3.org/2000/svg" xmlns:xlink="http://www.w3.org/1999/xlink" width="32pt" height="32pt" viewBox="0 0 32 32" version="1.1">
<g id="surface1">
<path style=" stroke:none;fill-rule:nonzero;fill:rgb(255,255,255);fill-opacity:1;" d="M 27.542969 10.195312 C 27.289062 10.042969 26.976562 10.027344 26.710938 10.160156 L 16.472656 15.28125 C 16.183594 15.425781 16 15.71875 16 16.042969 L 16 27.988281 C 16 28.285156 16.152344 28.558594 16.40625 28.714844 C 16.542969 28.800781 16.699219 28.84375 16.851562 28.84375 C 16.984375 28.84375 17.113281 28.8125 17.234375 28.753906 L 27.476562 23.632812 C 27.765625 23.488281 27.945312 23.191406 27.945312 22.871094 L 27.945312 10.921875 C 27.945312 10.625 27.792969 10.351562 27.542969 10.195312 Z M 26.238281 22.34375 L 17.707031 26.609375 L 17.707031 16.570312 L 26.238281 12.304688 Z M 26.238281 22.34375 "/>
<path style=" stroke:none;fill-rule:nonzero;fill:rgb(255,255,255);fill-opacity:1;" d="M 27.09375 8.335938 C 27.082031 8 26.875 7.699219 26.5625 7.574219 L 15.9375 3.222656 C 15.726562 3.132812 15.484375 3.136719 15.269531 3.230469 L 5.414062 7.582031 C 5.117188 7.714844 4.917969 8.003906 4.90625 8.332031 C 4.894531 8.660156 5.070312 8.964844 5.363281 9.117188 L 15.21875 14.324219 C 15.34375 14.386719 15.480469 14.421875 15.617188 14.421875 C 15.746094 14.421875 15.871094 14.390625 15.992188 14.335938 L 26.617188 9.128906 C 26.917969 8.980469 27.105469 8.671875 27.09375 8.335938 Z M 15.628906 12.609375 L 7.71875 8.429688 L 15.628906 4.9375 L 24.160156 8.433594 Z M 15.628906 12.609375 "/>
<path style=" stroke:none;fill-rule:nonzero;fill:rgb(255,255,255);fill-opacity:1;" d="M 14.703125 15.292969 L 5.316406 10.171875 C 5.050781 10.03125 4.730469 10.035156 4.472656 10.1875 C 4.210938 10.34375 4.054688 10.621094 4.054688 10.921875 L 4.054688 22.871094 C 4.054688 23.183594 4.222656 23.46875 4.496094 23.617188 L 13.882812 28.738281 C 14.011719 28.808594 14.152344 28.84375 14.292969 28.84375 C 14.445312 28.84375 14.59375 28.800781 14.730469 28.722656 C 14.988281 28.570312 15.148438 28.289062 15.148438 27.988281 L 15.148438 16.042969 C 15.148438 15.730469 14.976562 15.441406 14.703125 15.292969 Z M 6.5 22.765625 L 13.441406 17.71875 L 13.441406 20.03125 L 8.316406 23.757812 Z M 5.761719 18.882812 L 10.882812 15.15625 L 12.699219 16.144531 L 5.761719 21.195312 Z M 9.226562 14.25 L 5.761719 16.773438 L 5.761719 12.359375 Z M 9.972656 24.660156 L 13.441406 22.140625 L 13.441406 26.550781 Z M 9.972656 24.660156 "/>
</g>
</svg>
